X:1
T:My Little Bimbo
M:4/4
L:1/4
K:C
 C C E E/2 A/2-| A3 E/2_E/2| D D B B| A3A/2-^A/2| B F F E| F3 G/2^G/2|\
 A A E E/2 G/2-| G3 E| C C E E| A3 E| D D G G/2 B/2-| B3 z| z c B A|\
 c/2B/2 c/2A/2 B/2 A A/2| c d B A/2 G/2-| G E- F- ^F| G G/2A/2 G E|\
 G G/2A/2 _E D| C4-| C G A ^A| B B/2 F/2- F2-| F A A G| A A/2 E/2- E2-|\
 E EF/2-F/2 ^F| G G/2A/2 G E| G F E D| C4-| C/2 E3/2E/2-E/2 _E| D3/2 B/2- B2|\
 C3/2 A/2- A2| z/2 ^A/2B/2 A/2 BB/2-A/2| B/2B/2 =A F D| G G/2A/2 G E|\
 G G/2A/2 _E D| C4-| C G A ^A| B B/2 F/2- F2| F/2B/2-B/2-^A/2 B =A|\
 G4-| G2 z/2E/2-F/2-^F/2| G G c- c| _B/2G/2 AA/2-G/2 G| _B B/2A/2 B/2B/2-A/2 G/2-|\
 G4| A A C3/2 C/2| _A/2A/2 A/2A/2 C C/2C/2| G G A E/2 D/2-| D2 z/2E/2-F/2-^F/2|\
 G G c c/2E/2| G F E D| G4-| G4| A A/2B/2 A B| A A/2B/2 A G| c4-| c3 z|\
|:
